X:1
T:Sexagesima, 10.10.12
T:Sexagesima, 10.10.12
T:Hermann Rudolph Schroeder, 1887
T:Public Domain Courtesy of the Cyber Hymnal™
C:Hermann Rudolph Schroeder, 1887
Z:Public Domain
Z:Courtesy of the Cyber Hymnal™
%%score ( 1 2 ) ( 3 4 )
L:1/8
Q:1/4=105
M:4/4
K:C
V:1 treble 
V:2 treble 
V:3 bass 
V:4 bass 
V:1
 [^CA]2 | [DF]2 E2 x2 | [A,D]2 [G,G]2 | ([G,C]2 DE) | FG z x3 | !fermata![DG]2 E2 | [DF]2 D2 | %7
 G2 [FA]2 [F_B]2 [EG]2 | AG z x3 | !fermata![^CE]2 [_B,D]2 | [G,C]2 [CF]2 x2 | (EF) G2 x | %12
 !fermata![FA]2 [Fd]2 | [E_B]2 (AG) | F2 E2 | !fermata![A,D]4 |] %16
V:2
 x2 | x2 (EC) x2 | x4 | x2 C2 | C3 A2 F | x2 E2 | x2 D2 | (DE) x6 | E3 (F2 D) | x4 | x6 | %11
 C2 (DE) x | x4 | x2 E2 | (ED) (D^C) | x4 |] %16
V:3
 [A,,A,]2 | A,2 z x3 | F,2 [B,,D,]2 | [C,E,]2 (F,G,) | ([A,,A,][G,,_B,]) [F,,C]2 x2 | %5
 [G,,_B,]2 [^C,A,]2 | A,2 [F,A,]2 | [G,_B,]2 C2 [D,B,]2 B,2 | [^C,A,]2 [D,A,]2 x2 | %9
 [A,,A,]2 [_B,,F,]2 | E,2 z x3 | G,3 z C | [F,C]2 [D,F,]2 | [D,G,]2 [^C,A,]2 | [D,A,]2 [A,,G,]2 | %15
 !fermata![D,,F,]4 |] %16
V:4
 x2 | D,3 (A,2 ^C,) | (D,C,) x2 | x2 _B,,2 | x6 | x4 | (D,E,) x2 | x2 (F,E,) x (E,D,) x | x6 | x4 | %10
 _B,,3 (F,2 A,,) | C,2 C,2 x | x4 | x4 | x4 | x4 |] %16

